X:1
T:James Gibb editions
T:Gaudent in coelis - Dering
T:#
%%score [ 1 2 3 ] { ( 4 5 7 ) | 6 }
L:1/8
Q:1/4=96
M:3/4
K:Ab
V:1 treble nm="Alto" snm="A"
V:2 treble nm="Tenor" snm="T"
V:3 treble nm="Bass" snm="B"
V:4 treble nm="Harpsichord" snm="Acc."
V:5 treble 
V:7 treble 
V:6 bass 
V:1
"^Gaudent in Coelis""^Arr. in 3 parts by James Gibb""^Richard Dering\n(c. 1580-1630)" z6 | z6 | %2
w: ||
 z6 | z6 | E2 G2 A2 | B4 G2 | c3 B A2 || G2 F4 | E6 | z6 | z6 | z6 || z6 | c2 c2 B2 | c4 A2 | %15
w: ||Gau- dent in|coe- lis|an- i- mae|san- cto-|rum,|||||gau- dent in|coe- lis|
 d3 c B2 | A2 B4 ||[M:4/4] A4 z2 G2- | G2 F4 =EE | FF/G/ AB G4 | F2 z2 z4 | z8 |[M:4/4] z8 | %23
w: a- ni- mae|san- cto-|rum qui|* Chri- sti ve-|sti- gi- a sunt se- cu-|ti,|||
 z c AG/F/ G=E F2 | C2 z2 z c =A2 | F2 z F =D2 B,2 | z2 G2 G2 FE | B2 AG F4 | E4 E>E EF | %29
w: ve- sti- gi- a sunt se- cu-|ti se- cu-|ti se- cu- ti|et qui- a pro|e- ius a- mo-|re san- gui- nem su-|
 GE F2 C4 | F>F FG AD E2 | A2 z2 z4 | z8 | z4 z2 B2- | BAGG c3 B | A4 G4 | F2 c>A GF c>A | %37
w: um fu- der- unt|san- gui- nem su- um fu- der-|unt||id\-|* e- o cum Chris- to|ex- sul-|tant si- ne fi- ne, si- ne|
 GE B>G FE z2 | z2 E4 C2 | (=D E2 D) E4 |] %40
w: fi- ne, si- ne fi- ne,|si- ne|fi\- * * ne.|
V:2
[K:C] z6 | z6 | z6 | z6 | z6 | z6 | z6 ||[K:Ab][M:3/4][K:treble-8] z6 | E2 G2 A2 | B4 G2 | %10
w: ||||||||Gau- dent in|coe- lis|
 c3 B A2 | A2 G4 || F6 | A2 A2 G2 | A4 F2 | B3 A G2 | F2 (G A2 G) ||[M:4/4][K:treble-8] A4 z4 | %18
w: an- i- mae|san- cto-|rum,|gau- dent in|coe- lis|a- ni- mae|san- cto\- * *|rum|
 z8 | z8 | z4 z2 G2- | G2 F4 =EE |[M:4/4][K:treble-8] FF/G/ AB G4 | F2 z2 z c AG/F/ | %24
w: ||qui|* Chri- sti ve-|sti- gi- a sunt se- cu-|ti, ve- sti- gi- a|
 G=E F2 C2 z c | =A2 F2 z F =D2 | B,2 B2 B2 AG | G2 FE (=D E2 D) | E4 G>G GA | BG A4 G2 | %30
w: sunt se- cu- ti, se-|cu- ti, se- cu-|ti, et qui- a pro|e- ius a- mo\- * *|re san- gui- nem su-|um fu- der- unt|
 A>A AB cd B2 | A2 A3 GFF | (B3 A) G4 | =A (B2 A) B4 | z8 | z8 | c>A GF c>A GF | B>G FE B>G FE | %38
w: san- gui- nem su- um fu- der-|unt id- e- o cum|Chris\- * to|ex- sul\- * tant|||si- ne fi- ne, si- ne fi- ne,|si- ne fi- ne, si- ne fi- ne,|
 z2 B4 c2 | F4 E4 |] %40
w: si- ne|fi- ne.|
V:3
[K:C] z6 | z6 | z6 | z6 | z6 | z6 | z6 ||[M:3/4] z6 | z6 | z6 | z6 | z6 || %12
w: ||||||||||||
[K:Ab][M:3/4][K:bass] z6 | A,,2 C,2 E,2 | A,4 D,2 | B,,3 (C,/D,/) E,2 | A,2 E,4 ||[M:4/4] A,,4 z4 | %18
w: |gau- dent in|coe- lis|a- ni\- * mae|san- cto-|rum|
 z8 | z8 | z8 | A,,3 B,, C,2 C,2 |[M:4/4] F,3 B,, C,4 | z8 | z C A,G,/F,/ G,=E, F,2 | %25
w: |||qui Chri- sti ve-|sti- gi- a||ve- sti- gi- a sunt se- cu-|
 F,C =A,2 F,2 z F, | =D,2 E,E, E,2 E,E, | G,,2 A,,A,, B,,4 | E,4 z4 | z8 | F,>F, F,F, F,D, E,2 | %31
w: ti, se- cu- ti, se-|cu- ti, et qui- a pro|e- ius a- mo-|re||san- gui- nem su- um fu- der-|
 A,,4 z4 | z8 | z8 | z8 | z8 | z2 =E,F, E,F, z2 | z2 =D,E, D,E, z2 | z2 G,,4 A,,2 | %39
w: unt|||||si- ne fi- ne,|si- ne fi- ne,|si- ne|
 B,,4 [E,,E,]4 |] %40
w: fi- ne.|
V:4
 E2 G2 x2 | x6 | c3 B [EA]2 | G2 F4 | [G,E]4 [A,CE]F | [B,EG]3 x x2 | [CEA]3 x c=d || e4 =d2 | x6 | %9
 x4 [G,B,E]2 | E4 [A,CF]2- | [A,CF]4 =E2 || [A,CF]=EFG [CFA]2 | [CEA]4 [B,EG]2 | A3 G [A,DF]2 | %15
 B3 A [B,EG]2 | [CA]2 G A2 G ||[M:4/4] A2 GF =E3 F | G2 [CA]2 [CG]4 | F4 [C=E][CE]/[=DF]/ x2 | x8 | %21
 c4 G4 |[M:4/4] [CFA]3 [=DF] =E/F/G/A/ x2 | x2 z2 c4 | x2 [FA]G/F/ =E2 [=A,CF]2 | %25
 x4 B2- B/=A/B/c/ | =dc/d/ x2 [G,B,E]2 [A,F][B,G] | [B,G]2 [A,F][G,E] =D E2 D | %28
 E2- E/F/G/A/ [GB]/[FA]/[EG]/[=DF]/ [EG]F | [G,B,E]2 [CF]4 [C=E]2 | [A,CF]2 FG x2 G2 | %31
 [CEA]2 c4 Bc | [Bd]2 F2 G4 | CD C2 [F,B,=D]2 z2 | [G,B,E]3 [G,B,E] [EG][=DF] E2 | FGAB c4 | %36
 [CFA]2 GF [Cc]2 x2 | e2 B6 | z2 x2 x4 | B2 F2 [B,EG]4 |] %40
V:5
 x4 A2 | [EGB]4 [GBe]2 | [EA]4 x2 | E4 =D2 | x6 | x2 x A [EGB]2 | x2 x B A2 || G2 F4 | %8
 [GBe]4 [EAc]2 | [GB][FA][EG]F x2 | C3 B, A,2- | A,2 G,4 || x6 | x6 | [CE]4 x2 | [DF]4 x2 | %16
 x2 [B,E]4 ||[M:4/4] [CE]4 C4- | C2 F4 =E2 | [A,C]3 =D x2 [=EG][EGc] | %20
 [FA][FA]/[GB]/ [Ac][FA=d] [GBe]4 | G2 F4 [C=E]2 |[M:4/4] x4 x2 B/c/=d/=e/ | %23
 [Acf]2 z2 [=EG]2 [FA]2 | [=EGc]c/B/ x2 E/=D/C/B,/ x2 | [=Ac][Ac]/[GB]/ [FA]G/A/ [=DF]2 x2 | %26
 [FB]2 [GBe]2 x4 | x4 [F,B,]4 | [G,B,]2 x2 x4 | x2 A,2 G,4 | x8 | x8 | x8 | F4 x4 | x4 x2 CB, | %35
 [A,C]2 F2 [=EG][=DF] [EG]2 | x4 GAGF | G2 FE FG[=DF][EG] | z2 [EBe]4 [EAc]2 | [=DF] E2 D x4 |] %40
V:6
 z6 | E,2 G,2 E,2 | A,3 B, C2 | B,4 B,,2 | E,2 E,2 A,,2 | E,4 E,2 | A,,3 G,, F,,2 || E,,2 B,,4 | %8
 E,,2 E,2 A,,2 | E,4 E,2 | A,,3 G,, F,,2 | F,,2 C,4 || F,,6 | A,,2 C,2 E,2 | A,,4 D,2 | %15
 B,,3 C,/D,/ E,2 | A,,2 E,,4 ||[M:4/4] A,,4 C,3 =D, | =E,2 F,2 C,4 | F,,2 F,B,, C,4 | F,,4 E,,4 | %21
 A,,3 B,, C,4 |[M:4/4] F,,2 F,B,, C,4 | F,,4 C,2 F,,2 | C,2 F,2 C,2 F,,2 | F,,4 B,,4 | %26
 B,,2 E,,2 E,4 | G,,2 A,,2 B,,4 | E,,4 E,,4 | E,2 A,,F,, C,4 | F,,4 F,D, E,2 | A,,4 D,4 | %32
 B,,4 E,,4 | F,,4 B,,4 | E,4 C,4 | F,4 C,4 | F,,F,=E,F, E,F,E,F, | _E,2 =D,E, D,E,B,,E,, | %38
 z2 G,,4 A,,2 | B,,4 E,,4 |] %40
V:7
 x6 | x6 | x6 | x6 | x6 | x6 | x6 || x6 | x6 | x6 | x6 | x6 || x6 | x6 | x6 | x6 | x6 || %17
[M:4/4] x8 | x8 | x8 | x8 | x8 |[M:4/4] x8 | x8 | x8 | x8 | x8 | x8 | x8 | x8 | x4 A>A G/F/E/D/ | %31
 x2 E2 F4- | F2 [B,D]4 ED | =A, B,2 A, x2 z2 | x8 | x8 | x8 | x8 | x8 | x8 |] %40

